svg/fluentui-system-icons/ic_fluent_multiplier_5x_24_regular.svg

<svg width="24" height="24" viewBox="0 0 24 24" fill="none" xmlns="http://www.w3.org/2000/svg">
<path d="M7.00171 7.70011C7.02797 7.30614 7.3552 7 7.75005 7H12.2501C12.6643 7 13.0001 7.33579 13.0001 7.75C13.0001 8.16421 12.6643 8.5 12.2501 8.5H8.45173L8.30995 10.6267L9.59564 10.443C11.6564 10.1486 13.5001 11.7477 13.5001 13.8293C13.5001 15.7185 11.9686 17.25 10.0794 17.25H9.72438C8.65906 17.25 7.64331 16.8 6.92761 16.0109L6.6945 15.7539C6.41622 15.447 6.43936 14.9727 6.74618 14.6945C7.053 14.4162 7.52731 14.4393 7.80559 14.7461L8.0387 15.0031C8.47007 15.4788 9.08228 15.75 9.72438 15.75H10.0794C11.1402 15.75 12.0001 14.8901 12.0001 13.8293C12.0001 12.6605 10.9649 11.7626 9.80777 11.9279L7.60612 12.2425C7.38224 12.2744 7.15588 12.2037 6.99006 12.0499C6.82424 11.8961 6.73666 11.6758 6.7517 11.4501L7.00171 7.70011ZM14.2198 12.2197C14.5127 11.9268 14.9876 11.9268 15.2805 12.2197L16.5001 13.4393L17.7196 12.2197C18.0125 11.9268 18.4874 11.9268 18.7803 12.2197C19.0732 12.5125 19.0732 12.9874 18.7803 13.2803L17.5607 14.5L18.7803 15.7197C19.0732 16.0126 19.0732 16.4875 18.7803 16.7803C18.4874 17.0732 18.0125 17.0732 17.7196 16.7803L16.5001 15.5607L15.2805 16.7803C14.9876 17.0732 14.5127 17.0732 14.2198 16.7803C13.9269 16.4875 13.9269 16.0126 14.2198 15.7197L15.4394 14.5L14.2198 13.2803C13.9269 12.9874 13.9269 12.5125 14.2198 12.2197ZM4.75001 17C5.16423 17 5.50002 16.6642 5.50002 16.25C5.50002 15.8358 5.16423 15.5 4.75001 15.5C4.33579 15.5 4 15.8358 4 16.25C4 16.6642 4.33579 17 4.75001 17Z" fill="#212121"/>
</svg>

<svg xmlns="http://www.w3.org/2000/svg" width="24" height="24"><path d="M7.002 7.7A.75.75 0 0 1 7.75 7h4.5a.75.75 0 0 1 0 1.5H8.452l-.142 2.127 1.286-.184a3.42 3.42 0 1 1 .483 6.807h-.355a3.776 3.776 0 0 1-2.796-1.24l-.234-.256a.75.75 0 0 1 1.112-1.008l.233.257a2.275 2.275 0 0 0 1.685.747h.355a1.92 1.92 0 1 0-.271-3.822l-2.202.314a.75.75 0 0 1-.854-.792l.25-3.75Zm7.218 4.52a.75.75 0 0 1 1.06 0l1.22 1.22 1.22-1.22a.75.75 0 0 1 1.06 1.06l-1.22 1.22 1.22 1.22a.75.75 0 1 1-1.06 1.06l-1.22-1.22-1.22 1.22a.75.75 0 0 1-1.06-1.06l1.22-1.22-1.22-1.22a.75.75 0 0 1 0-1.06ZM4.75 17a.75.75 0 1 0 0-1.5.75.75 0 0 0 0 1.5Z"/></svg>
